svg/ca/bc.svg

<svg xmlns="http://www.w3.org/2000/svg" xmlns:xlink="http://www.w3.org/1999/xlink" width="846" height="510" viewBox="0 0 282 170"><path fill="#002b7f" d="M0 0h282v72H0z"/><g transform="translate(141 36)"><g id="a"><path fill="#fff" d="M-12-150h24v300h-24z" transform="rotate(75.677)"/><path fill="#ce1126" d="M-9-150h9v300h9V0H-9z" transform="rotate(75.677)"/></g><use xlink:href="#a" transform="rotate(-151.355)"/></g><path d="M0 24h129V0h24v24h129v24H153v24h-24V48H0z" fill="#fff"/><path d="M0 27h132V0h18v27h132v18H150v27h-18V45H0z" fill="#ce1126"/><g transform="translate(141 43)" fill="#ffd600" stroke="#000" stroke-width=".25"><path d="M0-22L6.5-9.5 15-21l2 12.5L29-18 20 0a20 2 0 0 1-40 0l-9-18 12 9.5 2-12.5 8.5 11.5L0-22z"/><path d="M20 0a20 2 0 0 0-40 0m40.5-1a20.5 2 0 0 0-41 0m43-4a22.5 3 0 0 0-45 0M23-6a23 3 0 0 0-46 0" fill="none"/><rect x="-3" y="-7" height="3" width="6" rx=".5"/><path id="b" d="M8.51-5.245c-.11 1.91 4.84 2.155 5.04.37.198-1.765-4.93-2.278-5.04-.37zm10.6 1c-.385 1.01 2.532 2.921 3.31 1.255.78-1.67-2.94-2.225-3.31-1.255z"/><use xlink:href="#b" transform="scale(-1 1)"/></g><path fill="#fff" d="M0 72h282v98H0z"/><g id="d" transform="translate(141 81)" fill="#002b7f"><path id="c" d="M0 0c10 0 18.1 5 28.2 5 10 0 18.1-5 28.2-5 10 0 18.1 5 28.2 5 10 0 18.1-5 28.2-5 10 0 18.1 5 28.2 5v14c-10 0-18.1-5-28.2-5-10 0-18.1 5-28.2 5-10 0-18.1-5-28.2-5-10 0-18.1 5-28.2 5-10 0-18.1-5-28.2-5z"/><use xlink:href="#c" transform="scale(-1 1)"/></g><use xlink:href="#d" transform="translate(0 28)"/><use xlink:href="#d" transform="translate(0 56)"/><g transform="translate(141 252)" fill="#ffd600" stroke="#000" stroke-width=".25"><path id="e" d="M0 0l-5.86-111.84L0-175l5.86 63.16z"/><g id="g"><use xlink:href="#e" transform="rotate(12)"/><use xlink:href="#e" transform="rotate(24)"/><use xlink:href="#e" transform="rotate(36)"/><use xlink:href="#e" transform="rotate(48)"/><path id="f" d="M0 0l-5.86-111.84S-3-116-3-120s-2-6-2-11 5-9 5-13c0-6-5-8-5-14s5-8 5-17c0 22 9 22 9 31 0 7.5-7 10-7 18s3.86 14.16 3.86 14.16z" transform="rotate(6)"/><use xlink:href="#f" transform="rotate(12)"/><use xlink:href="#f" transform="rotate(24)"/><use xlink:href="#f" transform="rotate(36)"/><use xlink:href="#f" transform="rotate(48)"/></g><use xlink:href="#g" transform="scale(-1 1)"/><circle r="112"/></g></svg>

<?xml version="1.0" standalone="no"?>
<!DOCTYPE svg PUBLIC "-//W3C//DTD SVG 1.1//EN" "http://www.w3.org/Graphics/SVG/1.1/DTD/svg11.dtd">
<svg xmlns="http://www.w3.org/2000/svg" xmlns:xlink="http://www.w3.org/1999/xlink" version="1.1" width="846" height="510" viewBox="0 0 282 170" id="bc_flag">
<desc>Flag of British Columbia</desc>
<rect width="282" height="72" fill="#002b7f"/>
<g transform="translate(141,36)">
<g id="a" transform="rotate(75.677280021796446968407440346665)">
<path fill="#fff" d="M-12,-150 h24 v300 h-24z"/>
<path fill="#ce1126" d="M-9,-150 h9 v300 h9 v-150 h-18z"/>
</g>
<use xlink:href="#a" transform="rotate(-151.35456004359289393681488069333)"/>
</g>
<path d="M0,24 h129 v-24 h24 v24 h129 v24 h-129 v24 h-24 v-24 h-129z" fill="#fff"/>
<path d="M0,27 h132 v-27 h18 v27 h132 v18 h-132 v27 h-18 v-27 h-132z" fill="#ce1126"/>
<g transform="translate(141,43)" style="fill:#ffd600;stroke:#000;stroke-width:0.25px">
<path d="M0,-22 L6.5,-9.5 L15,-21 L17,-8.5 L29,-18 L20,0 A20,2 0 0,1 -20,0 L-29,-18 L-17,-8.5 L-15,-21 L-6.5,-9.5 L0,-22 z "/>
<path d="M20,0 a20,2 0 0,0 -40,0 M20.5,-1 a20.5,2 0 0,0 -41,0 M22.5,-5 a22.5,3 0 0,0 -45,0 M23,-6 a23,3 0 0,0 -46,0" fill="none"/>
<rect x="-3" y="-7" height="3" width="6" rx="0.5"/>
<path id="stl" d="M8.51,-5.245 C8.4,-3.335 13.35,-3.09 13.55,-4.875 C13.747787,-6.6402494 8.6198722,-7.1527809 8.51,-5.245z M19.11,-4.245 C18.724973,-3.2356046 21.641781,-1.323814 22.42,-2.99 C23.2,-4.66 19.48,-5.215 19.11,-4.245 z"/>
<use xlink:href="#stl" transform="scale(-1,1)"/>
</g>
<rect y="72" width="282" height="98" fill="#fff"/>
<g id="b" transform="translate(141,81)" fill="#002b7f">
<path id="sb" d="M0,0 c10,0 18.1,5 28.2,5 c10,0 18.1,-5 28.2,-5 c10,0 18.1,5 28.2,5 c10,0 18.1,-5 28.2,-5 c10,0 18.1,5 28.2,5 v14 c-10,0 -18.1,-5 -28.2,-5 c-10,0 -18.1,5 -28.2,5 c-10,0 -18.1,-5 -28.2,-5 c-10,0 -18.1,5 -28.2,5 c-10,0 -18.1,-5 -28.2,-5z"/>
<use xlink:href="#sb" transform="scale(-1,1)"/>
</g>
<use xlink:href="#b" transform="translate(0,28)"/>
<use xlink:href="#b" transform="translate(0,56)"/>
<g transform="translate(141,252)" style="fill:#ffd600;stroke:#000;stroke-width:0.25px">
<path id="s" d="M0,0L-5.86,-111.84L0,-175L5.86,-111.84z"/>
<g id="sw">
<use xlink:href="#s" transform="rotate(12)"/>
<use xlink:href="#s" transform="rotate(24)"/>
<use xlink:href="#s" transform="rotate(36)"/>
<use xlink:href="#s" transform="rotate(48)"/>
<path id="w" d="M0,0L -5.86,-111.84 C-5.86,-111.84 -3,-116 -3,-120 C-3,-124 -5,-126 -5,-131 C-5,-136 0,-140 0,-144 C0,-150 -5,-152 -5,-158 C-5,-164 0,-166 0,-175 C0,-153 9,-153 9,-144 C9,-136.5 2,-134 2,-126 C2,-118 5.86,-111.84 5.86,-111.84z" transform="rotate(6)"/>
<use xlink:href="#w" transform="rotate(12)"/>
<use xlink:href="#w" transform="rotate(24)"/>
<use xlink:href="#w" transform="rotate(36)"/>
<use xlink:href="#w" transform="rotate(48)"/>
</g>
<use xlink:href="#sw" transform="scale(-1,1)"/>
<circle r="112"/>
</g>
</svg>
